X:1
T:Geder, LM
T:Geder, LM
T:Carl Crust, in Carmina Sacra, 1844
T:Public Domain Courtesy of the Cyber Hymnal™
C:Carl Crust, in Carmina Sacra, 1844
Z:Public Domain
Z:Courtesy of the Cyber Hymnal™
%%score ( 1 2 ) ( 3 4 )
L:1/8
Q:1/4=93
M:3/4
K:D
V:1 treble 
V:2 treble 
V:3 bass 
V:4 bass 
V:1
 [DF][EG] [DF] | [CE]3 [EG] [DF][CE] | [DF]3 [CE] [DF][D^G] | [EA][FB] c2 z x3 | %4
 [CA]3 [CE] [CE][DF] | [EG]3 [CE] [DA][CG] | [DF]3 [DA] [DB][Gc] | [Fd][EG] [DF]2 [CE]2 x | D6 |] %9
V:2
 x3 | x6 | x6 | x2 E3 B2 D | x6 | x6 | x6 | x7 | D6 |] %9
V:3
 [D,A,][C,A,] [D,A,] | [A,,A,]3 [A,,A,] [A,,A,][A,,A,] | [D,A,]3 [A,,A,] [D,A,][B,,B,] | %3
 [C,A,][D,A,] [E,A,]2 [E,^G,]2 x2 | [A,,A,]3 A, [G,A,][F,A,] | [E,B,]3 [G,A,] [F,A,][E,A,] | %6
 [D,A,]3 [F,D] [G,D][E,G,] | [F,A,][G,B,] A,3 z G, | [D,F,]6 |] %9
V:4
 x3 | x6 | x6 | x8 | x3 A, x2 | x6 | x6 | x2 A,2 A,,2 x | x6 |] %9

